svg/logo-nyc.svg

<svg xmlns="http://www.w3.org/2000/svg" viewBox="0 0 219 73"><g data-name="Layer 2"><g data-name="Layer 1"><path d="M214.44 31.88l4.56-4.5V13.69L205.31 0h-45.62L146 13.69V4.56L141.44 0h-18.25l-4.56 4.56v9.13l-9.13 9.12-9.12-9.12V4.56L95.81 0H77.56L73 4.56 68.44 0H50.19l-4.56 4.56v18.25L22.81 0H4.56L0 4.56v63.88L4.56 73h18.25l4.57-4.56V50.19L50.19 73h18.25L73 68.44v-36.5l22.81 22.81v13.69l4.57 4.56h18.25l4.56-4.56V54.75L146 31.94v27.37L159.69 73h45.62L219 59.31V45.63l-4.56-4.57h-22.81v4.57h-18.25V27.38h18.25v4.5h22.81zM215.75 3.08c.43 0 .8 0 .8-.54s-.41-.47-.75-.47h-.68v1zm-.63 2h-.57V1.59h1.31c.83 0 1.26.29 1.26 1a.88.88 0 01-.9.94l1 1.52h-.65l-.89-1.48h-.53zm.61-4.36a2.42 2.42 0 00-2.4 2.57 2.4 2.4 0 104.79 0 2.42 2.42 0 00-2.39-2.61m0 5.69a3 3 0 01-3.07-3.12 3.07 3.07 0 116.13 0 3 3 0 01-3.06 3.12"/></g></g></svg>

<svg xmlns="http://www.w3.org/2000/svg" viewBox="0 0 219 73"><g id="Layer_2" data-name="Layer 2"><g id="Layer_1-2" data-name="Layer 1"><path d="M214.44 31.88 219 27.38 219 13.69 205.31 0 159.69 0 146 13.69 146 4.56 141.44 0 123.19 0 118.63 4.56 118.63 13.69 109.5 22.81 100.38 13.69 100.38 4.56 95.81 0 77.56 0 73 4.56 68.44 0 50.19 0 45.63 4.56 45.63 22.81 22.81 0 4.56 0 0 4.56 0 68.44 4.56 73 22.81 73 27.38 68.44 27.38 50.19 50.19 73 68.44 73 73 68.44 73 31.94 95.81 54.75 95.81 68.44 100.38 73 118.63 73 123.19 68.44 123.19 54.75 146 31.94 146 59.31 159.69 73 205.31 73 219 59.31 219 45.63 214.44 41.06 191.63 41.06 191.63 45.63 173.38 45.63 173.38 27.38 191.63 27.38 191.63 31.88 214.44 31.88zM215.75 3.08c.43 0 .8 0 .8-.54s-.41-.47-.75-.47h-.68v1Zm-.63 2h-.57V1.59h1.31c.83 0 1.26.29 1.26 1a.88.88 0 0 1-.9.94l1 1.52h-.65l-.89-1.48h-.53Zm.61-4.36a2.42 2.42 0 0 0-2.4 2.57 2.4 2.4 0 1 0 4.79 0A2.42 2.42 0 0 0 215.73.68m0 5.69a3 3 0 0 1-3.07-3.12 3.07 3.07 0 1 1 6.13 0 3 3 0 0 1-3.06 3.12"/></g></g></svg>
